img/flockrush-icon-logo-center.svg

<?xml version="1.0" encoding="utf-8"?>
<!-- Generator: Adobe Illustrator 15.1.0, SVG Export Plug-In . SVG Version: 6.00 Build 0)  -->
<!DOCTYPE svg PUBLIC "-//W3C//DTD SVG 1.1//EN" "http://www.w3.org/Graphics/SVG/1.1/DTD/svg11.dtd">
<svg version="1.1" id="Layer_1" xmlns="http://www.w3.org/2000/svg" xmlns:xlink="http://www.w3.org/1999/xlink" x="0px" y="0px"
	 width="207.15px" height="199.359px" viewBox="0 0 207.15 199.359" enable-background="new 0 0 207.15 199.359"
	 xml:space="preserve">
<g>
	<g>
		<g>
			<path fill="#0C6897" d="M11.928,77.264c-2.724,26.886-8.175,39.931-10.587,36.712c-0.713-0.982-1.208-3.568-1.341-7.146
				c0-4.551,0.227-10.629,0.628-15.188C2.322,81.37,2.322,81.105,3.932,75.744c3.129-9.741,3.305-10.1,5.764-15.462l1.293-2.672
				c1.075-1.973,1.387-2.416,1.921-3.219l0.358-0.358h0.401C14.16,55.553,11.971,76.991,11.928,77.264z"/>
			<path fill="#0C6897" d="M185.468,107.283c3.039,23.674-17.062,48.463-39.888,31.217c-17.332-13.084-18.984-41.403,3.035-53.552
				C168.537,76.726,183.234,90.122,185.468,107.283z"/>
			<path fill="#0C6897" d="M43.329,165.48c9.25,10.006,14.386,21.445,7.014,21.088c-10.941-0.445-36.046-25.195-31.18-34.041
				C23.185,148.685,34.8,156.285,43.329,165.48z"/>
			<path fill="#0C6897" d="M162.643,170.662c0.85,5.182-0.671,12.242-3.932,14.207c-3.305,1.783-10.63-0.445-14.963-3.664
				c-6.971-5.182-8.892-14.385,0.18-20.098C153.707,156.285,161.259,162.355,162.643,170.662z"/>
			<path fill="#0C6897" d="M38.731,114.335c5.225,12.506-0.315,24.656-9.784,21.172c-9.963-3.568-15.5-22.42-6.434-30.377
				C29.617,100.4,36.272,108.263,38.731,114.335z"/>
			<path fill="#0C6897" d="M206.999,91.642c0.939,8.4-2.638,14.479-6.659,11.526c-5.045-3.569-8.35-20.636-1.562-23.403
				C202.979,78.954,206.372,85.392,206.999,91.642z"/>
			<path fill="#0C6897" d="M135.438,3.379c9.83,3.039,14.787,7.231,10.766,9.289c-9.289,4.738-43.106-8.042-41.766-11.253
				c0.136-0.358,0.717-0.537,1.207-0.717C111.318-0.735,124.629-0.019,135.438,3.379z"/>
			<path fill="#0C6897" d="M178.274,42.601c9.336,13.934,3.129,26.707-11.611,23.939c-20.234-3.756-34.219-29.48-20.28-37.258
				c0.447-0.265,0.981-0.443,1.43-0.623C159.829,24.817,172.781,34.465,178.274,42.601z"/>
			<path fill="#0C6897" d="M92.108,192.638c4.153,1.699,9.204,4.652,5.853,6.078c-6.344,2.588-23.675-3.219-21.263-7.24l0.222-0.264
				C80.049,188.71,88.224,191.126,92.108,192.638z"/>
			<path fill="#0C6897" d="M124.316,30.179c26.578,30.104-9.383,80.766-54.23,76.293c-48.464-4.73-47.841-60.302-18.313-83.705
				c1.473-1.169,3.44-2.415,4.913-3.397C78.085,8.562,109.709,13.564,124.316,30.179z"/>
			<path fill="#0C6897" d="M123.689,143.503c12.242,21.977,2.992,47.887-34.438,37.258c-27.875-7.777-42.931-36.275-19.567-53.561
				C90.769,115.41,114.088,126.484,123.689,143.503z"/>
		</g>
	</g>
</g>
</svg>

<svg xmlns="http://www.w3.org/2000/svg" width="207.15" height="199.359"><g fill="#0C6897"><path d="M11.93 77.26c-2.73 26.9-8.18 39.93-10.6 36.72-.7-1-1.2-3.57-1.33-7.15 0-4.55.23-10.63.63-15.2 1.7-10.26 1.7-10.52 3.3-15.9C7.06 66 7.23 65.64 9.7 60.3L11 57.6c1.06-1.96 1.38-2.4 1.9-3.2l.37-.37h.4c.5 1.52-1.7 22.96-1.74 23.23zM185.47 107.28c3.04 23.68-17.06 48.47-39.9 31.22-17.32-13.08-18.97-41.4 3.04-53.55 19.94-8.22 34.63 5.17 36.87 22.33zM43.33 165.48c9.25 10 14.4 21.45 7 21.1-10.93-.46-36.03-25.2-31.17-34.05 4.02-3.84 15.64 3.75 24.17 12.95zM162.64 170.66c.85 5.18-.67 12.24-3.93 14.2-3.3 1.8-10.62-.44-14.95-3.66-6.97-5.18-8.9-14.38.18-20.1 9.78-4.8 17.33 1.25 18.7 9.56zM38.73 114.33c5.23 12.5-.3 24.66-9.78 21.18-9.97-3.56-15.5-22.4-6.44-30.37 7.12-4.73 13.77 3.13 16.23 9.2zM207 91.64c.94 8.4-2.64 14.48-6.66 11.53-5.04-3.57-8.35-20.64-1.56-23.4 4.2-.82 7.6 5.62 8.22 11.87zM135.44 3.38c9.83 3.04 14.78 7.23 10.76 9.3-9.3 4.73-43.1-8.05-41.76-11.27.13-.34.7-.52 1.2-.7 5.68-1.44 19-.72 29.8 2.68zM178.27 42.6c9.34 13.93 3.13 26.7-11.6 23.94-20.24-3.76-34.23-29.48-20.3-37.26.46-.26 1-.44 1.44-.62 12.03-3.84 24.98 5.8 30.47 13.94zM92.1 192.64c4.16 1.7 9.2 4.65 5.86 6.08-6.34 2.58-23.67-3.22-21.26-7.24l.22-.27c3.13-2.5 11.3-.07 15.2 1.44zM124.32 30.18c26.57 30.1-9.4 80.77-54.23 76.3-48.48-4.74-47.85-60.3-18.33-83.7 1.48-1.18 3.44-2.43 4.92-3.4 21.38-10.82 53-5.82 67.62 10.8zM123.7 143.5c12.23 21.98 2.98 47.9-34.45 37.26-27.87-7.78-42.93-36.27-19.57-53.56 21.1-11.8 44.4-.72 54 16.3z"/></g></svg>
